web/ui/src/assets/svgs/index/add-btn.svg

<svg height="30" viewBox="0 0 30 30" width="30" xmlns="http://www.w3.org/2000/svg" xmlns:xlink="http://www.w3.org/1999/xlink"><defs><rect id="a" height="64" rx="4" width="186" x="180" y="109"/><filter id="b" height="175%" width="125.8%" x="-12.9%" y="-28.1%"><feOffset dx="0" dy="6" in="SourceAlpha" result="shadowOffsetOuter1"/><feGaussianBlur in="shadowOffsetOuter1" result="shadowBlurOuter1" stdDeviation="7"/><feColorMatrix in="shadowBlurOuter1" type="matrix" values="0 0 0 0 0.676133927   0 0 0 0 0.765264563   0 0 0 0 0.934612772  0 0 0 1 0"/></filter></defs><g fill="none" fill-rule="evenodd"><path d="m-258-101h1920v1111h-1920z" fill="#eff4f9"/><g transform="translate(-258 -126)"><use fill="#000" filter="url(#b)" xlink:href="#a"/><use fill="#fff" fill-rule="evenodd" xlink:href="#a"/></g><g fill-rule="nonzero"><path d="m0 0h30v30h-30z" fill="#000" opacity="0"/><path d="m23.5714286 23.5714286v6.4285714h-4.2857143v-6.4285714h-6.4285714v-4.2857143h6.4285714v-6.4285714h4.2857143v6.4285714h6.4285714v4.2857143zm2.1428571-19.28571432h-21.42857142v21.42857142h6.42857142v4.2857143h-10.7142857v-30h30v10.7142857h-4.2857143z" fill="#7b8c9c"/></g></g></svg>

<?xml version="1.0" encoding="UTF-8"?>
<svg width="30px" height="30px" viewBox="0 0 30 30" version="1.1" xmlns="http://www.w3.org/2000/svg" xmlns:xlink="http://www.w3.org/1999/xlink">
    <title>新增机构</title>
    <defs>
        <rect id="path-1" x="180" y="109" width="186" height="64" rx="4"></rect>
        <filter x="-12.9%" y="-28.1%" width="125.8%" height="175.0%" filterUnits="objectBoundingBox" id="filter-2">
            <feOffset dx="0" dy="6" in="SourceAlpha" result="shadowOffsetOuter1"></feOffset>
            <feGaussianBlur stdDeviation="7" in="shadowOffsetOuter1" result="shadowBlurOuter1"></feGaussianBlur>
            <feColorMatrix values="0 0 0 0 0.676133927   0 0 0 0 0.765264563   0 0 0 0 0.934612772  0 0 0 1 0" type="matrix" in="shadowBlurOuter1"></feColorMatrix>
        </filter>
    </defs>
    <g id="页面-1" stroke="none" stroke-width="1" fill="none" fill-rule="evenodd">
        <g id="建木自动化-首页备份-4" transform="translate(-258.000000, -126.000000)">
            <rect id="矩形" fill="#EFF4F9" x="0" y="25" width="1920" height="1111"></rect>
            <g id="蒙版备份">
                <use fill="black" fill-opacity="1" filter="url(#filter-2)" xlink:href="#path-1"></use>
                <use fill="#FFFFFF" fill-rule="evenodd" xlink:href="#path-1"></use>
            </g>
            <g id="新增机构" transform="translate(258.000000, 126.000000)" fill-rule="nonzero">
                <rect id="矩形" fill="#000000" opacity="0" x="0" y="0" width="30" height="30"></rect>
                <path d="M23.5714286,23.5714286 L23.5714286,30 L19.2857143,30 L19.2857143,23.5714286 L12.8571429,23.5714286 L12.8571429,19.2857143 L19.2857143,19.2857143 L19.2857143,12.8571429 L23.5714286,12.8571429 L23.5714286,19.2857143 L30,19.2857143 L30,23.5714286 L23.5714286,23.5714286 Z M25.7142857,4.28571428 L4.28571428,4.28571428 L4.28571428,25.7142857 L10.7142857,25.7142857 L10.7142857,30 L0,30 L0,0 L30,0 L30,10.7142857 L25.7142857,10.7142857 L25.7142857,4.28571428 Z" id="形状" fill="#7B8C9C"></path>
            </g>
        </g>
    </g>
</svg>
